images/socials/telegram.svg

<svg width="18" height="16" viewBox="0 0 18 16" fill="none" xmlns="http://www.w3.org/2000/svg">
<path d="M16.785 0.0992597L0.840489 6.24776C-0.247661 6.68481 -0.241365 7.29184 0.640845 7.56253L4.73445 8.83953L14.2058 2.8637C14.6537 2.59121 15.0629 2.7378 14.7265 3.03636L7.05283 9.96185H7.05103L7.05283 9.96275L6.77045 14.1823C7.18413 14.1823 7.36669 13.9925 7.59871 13.7686L9.58705 11.8351L13.7229 14.89C14.4855 15.31 15.0332 15.0941 15.2229 14.1841L17.9379 1.38885C18.2158 0.274623 17.5126 -0.229883 16.785 0.0992597Z" fill="#83B3D3"/>
</svg>

<svg xmlns="http://www.w3.org/2000/svg" width="18" height="16" fill="none"><path fill="#83B3D3" d="M16.785.1.84 6.247c-1.088.438-1.08 1.045-.2 1.316L4.735 8.84l9.472-5.976c.448-.273.857-.126.52.172L7.053 9.962H7.05h.002l-.283 4.22c.414 0 .597-.19.829-.413l1.988-1.934 4.136 3.055c.762.42 1.31.204 1.5-.706L17.938 1.39C18.216.276 17.513-.229 16.785.1Z"/></svg>
